X:1
T:Title
%%score { ( 1 4 5 ) | ( 2 3 ) }
L:1/8
M:4/4
K:Bb
V:1 treble nm="Grand Piano"
V:4 treble 
V:5 treble 
V:2 bass 
V:3 bass 
V:1
 z4 z2[Q:1/4=106] F2 | [Fd]>c B>c [Fd]2 [DB]2 | [DF]6[K:bass][K:treble] z2 | %3
 [EG]2 [G,B,EG]2 [EGe]2 [E^Fe]2 | [DFd]6[K:bass][K:treble] z2 | [Fd]>c B>c [Fd]2 [DB]2 | %6
 [DF]6[K:bass][K:treble] z2 | A>B c>=B [=E_Bd]2 [EBc]2 | [A,CF]6 z2 | %9
 [F,A,CF]2 [B,DG]2 [CEA]2 [DFB]2 | [DF_A=B]4 [E=Ac]2 F2 | [CEA]2 [DFB]2 [EGc]2 [FAd]2 | %12
 [Ae]2- [FA-e-f]>[FA-e-f] [FAef]2 z E | [DB]2 F2 c2 F2 |[M:3/4] d2 B2 [Be]2 |[M:1/4] [B=e]2 | %16
[M:4/4] [Bf]2 B>c d2 c2 |[M:3/4] [B,DB]6 |[M:1/4] F2 |[M:4/4] F4 B4 | [Dd]6 z2 | z2 [B,E]2 z2 G2 | %22
 F6 z2 | [F,A,F]2 [F,B,F]2 [F,CF]2 [F,DF]2 | [EF]4[K:treble] z4 | [B,DF]2 [B,F]2 [B,EG]2 [Ge]2 | %26
 [Fd]6[K:bass][K:treble] z2 | [Dd]2- [D^Fd]2 G2 A2 | [DG]2 z2 z4 | [Ee]2- [EAe]2 [B,B]2- [B,GB]2 | %30
[M:3/4] [D^FAd]6 |[M:1/4] [Gd]2 |[M:4/4] [Ge]3 [Gd] [CGc]2 [A,F]2 | [Ff]2 [Fd]2 [GB]2 [Gc]2 | %34
 d2 B>c d2 c2 |[M:3/4] [DB]6 |] %36
V:2
 z4 z2 D2 | z z/ E/ D>E B,,2 [D,F,B,]2 | B,,2 D,>D, D,2 D,2 | B,,2 E,2 B,,2 [E,^F,B,]2 | %4
 B,,2 D,>D, D,2 D,2 | z z/ E/ D>E B,,2 [D,F,B,]2 | B,,2 D,>D, D,2 [_D,F,B,]2 | %7
 [C,F,A,]2 [C,F,A,]2 [C,G,B,]2 [C,G,B,]2 | [F,,F,]2 C,2 F,,2 F2 | F,,2 F,,>F,, F,,2 F,,2 | F,8 | %11
 F,8 | [F,,F,]2 [E,,E,]2 [D,,D,]2 [C,F,A,]2 | [B,,B,]2 [D,B,]2[K:treble] [F,A,F]2 [A,C]2 | %14
[M:3/4] [B,F]2 [_A,DF]2 [G,E]2 |[M:1/4][K:bass] [G,_D]2 | %16
[M:4/4] [F,D]2 [G,C=E]2 [F,B,F]2 [F,A,_E]2 |[M:3/4] B,,6 |[M:1/4] F,2 |[M:4/4] z2 B,2 z2 D2 | %20
 [B,,B,]4 [D,,D,]4 | [E,,E,]4 z2 E2 | z2 B,2 B,2 F2 | F,,2 G,,2 A,,2 B,,2 | C,2 z D A,,2 A,,2 | %25
 B,,2 D,2 E,2 [E,B,]2 | B,,2 D,2 D,2 D2 | [^F,,^F,]2 [D,,D,]2 [=E,,=E,]2 [F,,F,]2 | %28
 [G,,G,]2 [_A,,_A,]2 [G,,G,]2 [F,,F,]2 | [E,,E,]2 [F,,F,]2 [G,,G,]2 [E,,E,]2 | %30
[M:3/4] [D,,D,]2 A,,2 D,,2 |[M:1/4] [G,B,]2 |[M:4/4] [C,C]3 [D,=B,] E,2 F,E, | %33
 [D,B,]2 [B,,B,]2 [E,B,]2 [E,B,]2 | [F,B,F]2 [G,B,=E]2 [F,B,F]2 [F,_E]2 |[M:3/4] [B,,F,]6 |] %36
V:3
 x8 | B,,2 [D,F,B,]2 z4 | x8 | x8 | x8 | C,2 [D,F,B,]2 z4 | x8 | x8 | x8 | x8 | %10
 F,,2 F,,>F,, F,,2 F,,2 | F,,2 F,,>F,, F,,2 F,,2 | x8 | x4[K:treble] x4 |[M:3/4] x6 | %15
[M:1/4][K:bass] x2 |[M:4/4] x8 |[M:3/4] x6 |[M:1/4] x2 |[M:4/4] [B,,F,]4 [D,B,]4 | x8 | %21
 z4 [G,,G,]4 | [B,,F,]6 z2 | x8 | z2 B,,2 z4 | x8 | x8 | x8 | x8 | x8 |[M:3/4] x6 |[M:1/4] x2 | %32
[M:4/4] x8 | x8 | x8 |[M:3/4] x6 |] %36
V:4
 x8 | x8 | z2[K:bass] [F,B,]>[F,B,] [F,B,]2[K:treble] [F,B,DF]2 | x8 | %4
 z2[K:bass] [F,B,]>[F,B,] [F,B,]2[K:treble] [F,B,DF]2 | x8 | %6
 z2[K:bass] [F,B,]>[F,B,] [F,B,]2[K:treble] [DFG]2 | [CF]2 [FA]2 z4 | x8 | x8 | x8 | x8 | %12
 F2 z2 z2 F2 | x8 |[M:3/4] x6 |[M:1/4] x2 |[M:4/4] x8 |[M:3/4] x6 |[M:1/4] x2 | %19
[M:4/4] z2 D2 z2 F2 | z2 [FB]2 [FB]2 [B,B]2 | [G,G]4 [B,B]4 | z2 D2 D2 z2 | x8 | %24
 F,2 z[K:treble] F [F,CF]2 [F,EF]2 | x8 | z2[K:bass] [F,B,]2 [F,B,]2[K:treble] d2 | A2 z2 [Dd]4 | %28
 [B,B]2- [B,-DFB-]2 [B,EB]2 [B,D_AB]2 | G2 z2 E2 z2 |[M:3/4] x6 |[M:1/4] x2 |[M:4/4] x8 | x8 | x8 | %35
[M:3/4] x6 |] %36
V:5
 x8 | x8 | x2[K:bass] x4[K:treble] x2 | x8 | x2[K:bass] x4[K:treble] x2 | x8 | %6
 x2[K:bass] x4[K:treble] x2 | x8 | x8 | x8 | x8 | x8 | x8 | x8 |[M:3/4] x6 |[M:1/4] x2 | %16
[M:4/4] x8 |[M:3/4] x6 |[M:1/4] x2 |[M:4/4] x8 | x8 | x8 | x8 | x8 | z2 F,2[K:treble] z4 | x8 | %26
 x2[K:bass] x4[K:treble] x2 | x8 | x8 | x8 |[M:3/4] x6 |[M:1/4] x2 |[M:4/4] x8 | x8 | x8 | %35
[M:3/4] x6 |] %36

